icons/palliative-care.svg

<svg width="48" height="48" viewBox="0 0 48 48" fill="none" xmlns="http://www.w3.org/2000/svg">
<path fill-rule="evenodd" clip-rule="evenodd" d="M23.4271 20.8152C24.423 19.4686 25.9003 18.5 27.6834 18.5C29.52 18.5 30.9315 19.4579 31.9334 20.8029C32.9352 19.458 34.3467 18.5 36.1834 18.5C37.239 18.5 38.1726 18.788 38.9648 19.3002C39.5586 19.6841 40.073 20.194 40.5 20.8029C40.6112 20.9614 40.6699 21.141 40.6798 21.321C40.6982 21.6546 40.5491 21.9898 40.2554 22.1958C39.8032 22.5129 39.1796 22.4034 38.8625 21.9512C38.1378 20.9177 37.2182 20.5 36.1834 20.5C34.8041 20.5 33.6438 21.447 32.8411 23.1841L31.9334 25.1486L31.0256 23.1841C30.2229 21.4469 29.0626 20.5 27.6834 20.5C26.6827 20.5 25.7516 21.0357 25.0351 22.0044C24.3156 22.9774 23.8667 24.3285 23.8667 25.7529C23.8667 26.5231 23.9826 27.2631 24.1893 27.972C24.2905 28.3191 24.4136 28.6593 24.5559 28.9922C25.5674 31.3594 27.7895 33.3242 29.6142 34.7441C30.05 35.0833 30.1284 35.7116 29.7892 36.1475C29.7077 36.2522 29.6095 36.3363 29.5013 36.3989C29.1592 36.5969 28.717 36.5802 28.3858 36.3225C28.063 36.0712 27.7164 35.795 27.3576 35.4947C25.6774 34.088 23.7315 32.1528 22.7168 29.7781C22.5449 29.3759 22.3942 28.9602 22.2693 28.5318C22.0136 27.6549 21.8667 26.7265 21.8667 25.7529C21.8667 23.9328 22.4343 22.1576 23.4271 20.8152Z" fill="black"/>
<path d="M22.1942 13.8008L23.8667 17L25.8058 13.8008C27.2857 10.6924 29.4189 9 31.9688 9C33.8221 9 35.5358 9.96175 36.8511 11.688C38.1744 13.4249 39 15.8375 39 18.3793C39 18.6881 38.9881 18.9951 38.9648 19.3002C39.5586 19.6841 40.073 20.194 40.5 20.8029C40.6112 20.9614 40.6699 21.141 40.6798 21.321C40.915 20.3461 41 19.5277 41 18.3793C41 12.476 37.1889 7 31.9688 7C29.1082 7 26.8306 8.5321 25.1821 10.8926C24.7432 11.5211 24.3488 12.2084 24 12.9411C23.6511 12.2084 23.2568 11.5211 22.8179 10.8926C21.1694 8.532 18.8917 7 16.0313 7C10.8117 7 7 12.475 7 18.3793C7 19.9661 7.24643 21.4842 7.67984 22.9271C7.89182 23.6328 8.14855 24.3206 8.44308 24.9896C12.5487 34.3149 24 40 24 40C24 40 26.4562 38.7021 29.5013 36.3989C29.1592 36.5969 28.717 36.5802 28.3858 36.3225C28.063 36.0712 27.7164 35.795 27.3576 35.4947C26.7117 35.9589 26.1061 36.3698 25.5635 36.7238C24.9329 37.1352 24.3908 37.4673 23.9738 37.7143C23.7425 37.5839 23.4729 37.4284 23.1712 37.2484C22.0845 36.6002 20.5915 35.6409 18.9776 34.4043C15.7109 31.9011 12.1284 28.3968 10.2735 24.1837C10.01 23.5851 9.78228 22.9742 9.59528 22.3517C9.2135 21.0807 9 19.7563 9 18.3793C9 15.8371 9.82569 13.4245 11.1491 11.6877C12.4644 9.96159 14.1781 9 16.0313 9C18.581 9 20.7142 10.6922 22.1942 13.8008Z" fill="black"/>
<path d="M39.4556 25.1013C40.0815 25.1099 40.5819 25.6243 40.5733 26.2502C40.5222 29.9615 38.7276 32.4863 36.9844 34.0517C36.1167 34.8309 35.2553 35.3801 34.6099 35.7356C34.2862 35.914 34.0138 36.0452 33.818 36.1335C33.72 36.1777 33.6409 36.2113 33.5839 36.2348C33.5553 36.2465 33.5323 36.2557 33.5151 36.2625L33.4937 36.2708L33.4865 36.2736L33.4825 36.2751C32.8966 36.4954 32.2421 36.1994 32.0218 35.6135C31.8018 35.0287 32.0968 34.3764 32.6806 34.155L32.686 34.1529C32.6926 34.1503 32.7047 34.1455 32.7221 34.1383C32.7569 34.124 32.8125 34.1005 32.886 34.0673C33.0333 34.0009 33.2511 33.8963 33.5163 33.7503C34.0487 33.457 34.7595 33.0032 35.4699 32.3653C36.8826 31.0966 38.2667 29.1313 38.3068 26.219C38.3154 25.5931 38.8298 25.0927 39.4556 25.1013Z" fill="black"/>
</svg>

<svg
  xmlns="http://www.w3.org/2000/svg"
  width="24"
  height="24"
  viewBox="0 0 24 24"
  fill="none"
  stroke="currentColor"
  stroke-width="2"
  stroke-linecap="round"
  stroke-linejoin="round"
>
  <path
    fill-rule="evenodd"
    d="M23.427 20.815c.996-1.346 2.473-2.315 4.256-2.315 1.837 0 3.249.958 4.25 2.303 1.002-1.345 2.414-2.303 4.25-2.303 1.056 0 1.99.288 2.782.8a5.6 5.6 0 0 1 1.535 1.503 1 1 0 1 1-1.638 1.148c-.724-1.033-1.644-1.451-2.679-1.451-1.379 0-2.54.947-3.342 2.684l-.908 1.965-.907-1.965c-.803-1.737-1.963-2.684-3.343-2.684-1 0-1.931.536-2.648 1.504-.72.973-1.168 2.324-1.168 3.749 0 .77.116 1.51.322 2.219q.153.52.367 1.02c1.011 2.367 3.233 4.332 5.058 5.752a1 1 0 0 1-1.228 1.578c-.323-.25-.67-.527-1.028-.827-1.68-1.407-3.626-3.342-4.641-5.717a11 11 0 0 1-.448-1.246 9.9 9.9 0 0 1-.402-2.78c0-1.82.567-3.594 1.56-4.937"
    clip-rule="evenodd"
  />
  <path d="m22.194 13.8 1.673 3.2 1.939-3.2c1.48-3.108 3.613-4.8 6.163-4.8 1.853 0 3.567.962 4.882 2.688C38.174 13.425 39 15.838 39 18.379q0 .464-.035.921a5.6 5.6 0 0 1 1.535 1.503c.111.158.17.338.18.518.235-.975.32-1.793.32-2.942C41 12.476 37.189 7 31.969 7c-2.86 0-5.138 1.532-6.787 3.893A14.4 14.4 0 0 0 24 12.94a14.4 14.4 0 0 0-1.182-2.048C21.169 8.532 18.892 7 16.03 7 10.811 7 7 12.475 7 18.38c0 1.586.246 3.104.68 4.547.212.706.469 1.394.763 2.063C12.55 34.315 24 40 24 40s2.456-1.298 5.501-3.601a1 1 0 0 1-1.115-.077c-.323-.25-.67-.527-1.028-.827-.646.464-1.252.875-1.794 1.229-.631.411-1.173.743-1.59.99q-.349-.196-.803-.466a44 44 0 0 1-4.193-2.844c-3.267-2.503-6.85-6.007-8.705-10.22a16 16 0 0 1-.678-1.832A13.8 13.8 0 0 1 9 18.379c0-2.542.826-4.955 2.15-6.691C12.463 9.962 14.177 9 16.03 9c2.55 0 4.683 1.692 6.163 4.8" />
  <path d="M39.456 25.101a1.133 1.133 0 0 1 1.117 1.15c-.05 3.71-1.845 6.235-3.589 7.8a13 13 0 0 1-2.374 1.685 11 11 0 0 1-1.026.499q-.044.016-.069.028l-.021.008-.008.003-.003.001a1.134 1.134 0 0 1-.802-2.12l.005-.002.036-.015.164-.07a10.638 10.638 0 0 0 2.584-1.702c1.413-1.27 2.797-3.235 2.837-6.147a1.133 1.133 0 0 1 1.149-1.118" />
</svg>
